X:1
T:The City of Baltimore
M:6/8
L:1/8
K:C
G-F| E2 E C2 D| E2 E G2 E| F2 E C2 C| C3- C2 A| B2 A BBG| c2- B G2 F|\
 EEC B2 A| G3- G2 A| B2 A B2 A| c2 B G2 F| E2 C B2 A| G3- G2 G/2F/2|\
 E2 E C2 D| E3 G2 E| F2 E C2 C| C3- C||
